!!!SOCIAL_FUNCTION:	war songs
!!!PDT:	1922
!!!OTL: No_82_War_Song_(i).krn
!!!REG: Southwest
!!!LANG: Non-Tone
!!!LING_GROUP: Uto-Aztecan
**kern	**kern
*staff2	*staff1
=1-	=1-
*clefF4	*clefF4
*k[b-e-a-d-g-c-]	*k[b-e-a-d-g-c-]
*M3/4	*M3/4
4GG-/	2d-\
4GG-/	.
4GG-/	8B-\L
.	8G-\J
=2	=2
4GG-/	2.e-\
4GG-/	.
4GG-/	.
=3	=3
2.r	2d-\
.	8B-\L
.	8G-\J
=4	=4
2.r	[2d-\
.	8d-\L]
.	8B-\J
=5	=5
2.r	2d-\
.	8B-\L
.	8A-\J
=6	=6
2.r	2A-\
.	8A-\L
.	8G-\J
=7	=7
2.r	4.A-\
.	8G-\
.	4G-\
=8	=8
2.r	8A-\
.	24G-\LL
.	24G-\
.	24G-\JJ
.	(8.G-\L
.	16D-\Jk)
.	4D-\
=9	=9
2.r	2B-\
.	8B-\L
.	8A-\J
=10	=10
2.r	2A-\
.	8A-\L
.	8G-\J
=11	=11
2.r	4.A-\
.	8G-\
.	4G-\
=12||	=12||
*M2/4	*M2/4
2r	8A-\
.	24G-\LL
.	24G-\
.	24G-\JJ
.	4G-\
=13	=13
2r	16D-\LK
.	8.D-\J
.	8D-\L
.	8D-\J
=14	=14
2r	2D-\
==	==
*-	*-
